libs/ui/packages/crypto-icons/src/svg/METIS.svg

<svg width="24" height="24" stroke-miterlimit="10" version="1.1" viewBox="0 0 24 24" xml:space="preserve" xmlns="http://www.w3.org/2000/svg" xmlns:xlink="http://www.w3.org/1999/xlink">
<path d="M21.0472 12.0315C20.95 7.53525 17.5653 3.79281 13.1014 3.24588C8.63748 2.69895 4.44938 5.51356 3.26958 9.85335C2.08978 14.1931 4.27641 18.7408 8.40282 20.5292C8.84294 19.8676 9.17981 19.143 9.40184 18.3801C9.58326 17.9185 9.78027 17.4646 9.98447 17.0254C10.9883 17.3261 12.0761 17.0496 12.8145 16.3061L12.8449 16.2757L12.8449 16.2757C11.9402 15.9393 10.9263 16.0902 10.1587 16.6753C10.4085 16.1531 10.681 15.6464 10.9607 15.1544C11.9462 15.503 13.0436 15.2789 13.8135 14.5718L13.8439 14.5414L13.8439 14.5414C12.9705 14.172 11.97 14.2658 11.1805 14.7912C11.4602 14.3297 11.7479 13.8757 12.0508 13.4517C13.0709 13.7196 14.1554 13.3989 14.8657 12.6193L14.8885 12.589L14.8885 12.589C14.0503 12.3156 13.1322 12.4561 12.4141 12.9674C12.4369 12.937 12.4672 12.8995 12.4896 12.8691C12.671 12.6345 12.8605 12.3999 13.0491 12.173C14.2227 11.7889 15.0877 10.7871 15.2965 9.56992L15.3041 9.52436L15.2965 9.52436C14.0731 9.84253 13.1369 10.8285 12.8824 12.0667C12.701 12.2861 12.5192 12.5062 12.3454 12.7324C12.6425 11.9556 12.576 11.0865 12.1639 10.3639L12.1639 10.3639L12.1412 10.3943C11.5117 11.2541 11.4181 12.3945 11.899 13.3454C11.6113 13.7542 11.3315 14.1702 11.0666 14.609C11.2398 13.7138 10.9658 12.7905 10.3325 12.1346L10.3325 12.1346L10.3173 12.1726C9.92382 13.1531 10.1107 14.2713 10.8017 15.0705C10.5367 15.5321 10.287 16.0088 10.0448 16.5007C10.1941 15.5686 9.88407 14.6218 9.21243 13.9584L9.21243 13.9584L9.19724 13.9964C8.84541 15.0238 9.09001 16.1615 9.83302 16.9535C9.67318 17.2939 9.52293 17.6328 9.37907 17.9901C9.3395 17.9537 9.29321 17.9255 9.2428 17.9069C8.98462 17.8319 8.73772 17.7225 8.50872 17.5817C8.3194 17.4693 8.11841 17.3779 7.90931 17.3091C7.09211 17.0442 7.21319 16.651 6.79041 15.8562C6.65283 15.6925 6.50663 15.5363 6.35243 15.3882C6.20938 15.2954 6.09223 15.1678 6.01196 15.0174C5.91874 14.8295 5.85974 14.6265 5.83774 14.418C5.8326 14.1814 5.67736 13.9744 5.45171 13.9033C4.24849 13.4873 4.78597 11.9284 4.83112 11.7238C4.81263 11.4592 4.75388 11.199 4.65689 10.9522C4.64676 10.92 4.63914 10.8872 4.63412 10.8539C4.56903 10.5264 4.66152 10.1874 4.88387 9.93836C5.02773 9.7945 5.52724 9.55993 5.63314 9.42366C5.73903 9.2874 5.81456 9.13594 5.92085 9.00767C6.25705 8.67231 6.64546 8.39376 7.07093 8.18288C7.41898 7.99386 7.47972 7.50954 7.61559 7.35809C7.84257 7.10074 8.19063 7.10074 8.44797 6.87376C8.57665 6.76027 8.76766 6.69953 8.88754 6.57885C9.49196 6.02532 10.2537 5.67365 11.067 5.57264C11.631 5.52665 12.1987 5.57788 12.7454 5.72409C12.8245 5.73738 12.9028 5.75512 12.9799 5.77724C14.2283 5.82279 15.7268 6.07974 16.2715 6.60962C16.5411 6.86872 16.7415 7.19133 16.8541 7.5479C16.9426 7.82403 17.0646 8.08828 17.2174 8.33473L17.5502 8.8794C17.7623 9.22287 17.8303 9.63618 17.7393 10.0295C17.6779 10.2207 17.6727 10.4255 17.7241 10.6197C17.8996 10.8847 18.1053 11.1285 18.3371 11.3462C18.4291 11.4373 18.5305 11.5184 18.6396 11.5883C18.8957 11.7412 19.1433 11.9079 19.3813 12.0878C19.3972 12.2364 19.3303 12.3818 19.207 12.4663C18.9952 12.6553 18.5864 12.9506 18.5864 12.9506C18.6012 13.0342 18.6266 13.1156 18.662 13.1928C18.7223 13.2987 18.8586 13.4653 18.8134 13.6088C18.7683 13.7522 18.4729 13.8737 18.5561 14.0323C18.6392 14.199 18.851 14.2441 18.7906 14.3956C18.7303 14.5394 18.435 14.7952 18.4653 14.9027C18.4957 15.0102 18.7379 16.0216 18.1776 16.1966C17.4843 16.3337 16.7806 16.4122 16.0741 16.4312C15.8424 16.4446 15.6338 16.576 15.5218 16.7792C15.4146 16.9792 15.3453 17.1974 15.3176 17.4226C15.1132 18.2281 14.8424 19.0152 14.508 19.7759C14.508 19.7759 14.4853 19.8215 14.4549 19.8894C14.3815 20.039 14.3354 20.2004 14.3186 20.3661C14.3662 20.4879 14.4383 20.5986 14.5304 20.6914C14.6295 20.8049 14.7861 20.8493 14.93 20.8049C18.6499 19.5085 21.117 15.9702 21.0472 12.0315Z" fill="#000000" fill-rule="nonzero" opacity="1" stroke="none"/>
</svg>

<svg xmlns="http://www.w3.org/2000/svg" xml:space="preserve" width="24" height="24" viewBox="0 0 24 24" stroke-miterlimit="10"><path d="M21.047 12.032a9.048 9.048 0 1 0-12.644 8.497 7.8 7.8 0 0 0 .999-2.149c.181-.461.378-.915.582-1.355a2.84 2.84 0 0 0 2.83-.719l.03-.03a2.81 2.81 0 0 0-2.685.4c.25-.523.522-1.03.802-1.522a2.83 2.83 0 0 0 2.852-.582l.03-.03a2.82 2.82 0 0 0-2.662.25c.28-.462.567-.916.87-1.34a2.83 2.83 0 0 0 2.815-.833l.023-.03a2.78 2.78 0 0 0-2.475.378l.076-.098c.181-.235.37-.47.56-.696a3.33 3.33 0 0 0 2.246-2.603l.008-.046h-.008a3.32 3.32 0 0 0-2.414 2.543c-.181.22-.363.44-.537.665a2.78 2.78 0 0 0-.181-2.368l-.023.03c-.63.86-.723 2-.242 2.951-.288.41-.567.825-.832 1.264a2.8 2.8 0 0 0-.735-2.474l-.015.038a2.82 2.82 0 0 0 .485 2.897q-.396.693-.757 1.43a2.92 2.92 0 0 0-.833-2.542l-.015.038a2.93 2.93 0 0 0 .636 2.957c-.16.34-.31.68-.454 1.037a.4.4 0 0 0-.136-.083 3 3 0 0 1-.734-.325 3 3 0 0 0-.6-.273c-.817-.265-.696-.658-1.119-1.453a6 6 0 0 0-.438-.468 1 1 0 0 1-.34-.37 1.8 1.8 0 0 1-.174-.6.55.55 0 0 0-.386-.515c-1.204-.416-.666-1.975-.62-2.18a2.6 2.6 0 0 0-.175-.77 1.06 1.06 0 0 1 .227-1.014c.144-.145.643-.38.75-.515.105-.137.18-.288.287-.416a4.4 4.4 0 0 1 1.15-.825c.348-.19.409-.673.545-.825.227-.257.575-.257.832-.484.129-.114.32-.174.44-.295a3.95 3.95 0 0 1 2.179-1.006 5 5 0 0 1 1.678.151q.12.02.235.053c1.248.046 2.747.303 3.291.833.27.259.47.581.583.938q.133.415.363.787l.333.544c.212.344.28.757.19 1.15a1.05 1.05 0 0 0-.016.59q.264.4.613.727.139.137.303.242.384.23.741.5a.41.41 0 0 1-.174.378c-.212.19-.62.485-.62.485q.022.125.075.242c.06.106.197.272.151.416-.045.143-.34.265-.257.423.083.167.295.212.235.364-.06.143-.356.4-.326.507s.273 1.119-.287 1.294q-1.042.205-2.104.234a.68.68 0 0 0-.552.348c-.107.2-.177.418-.204.644a15 15 0 0 1-.81 2.353s-.023.046-.053.113q-.11.226-.136.477a.95.95 0 0 0 .211.325c.1.114.256.158.4.114a9.12 9.12 0 0 0 6.117-8.773"/></svg>
